assets/Rock/Flat/rock_flat.svg

<svg width="32" height="32" viewBox="0 0 32 32" fill="none" xmlns="http://www.w3.org/2000/svg">
<path d="M10.38 29.1038L23.28 30.0938C24.36 30.0938 25.38 29.5838 26.02 28.7138L29.2 24.4138C29.76 23.6438 29.98 22.6738 29.79 21.7438L29.2849 19.1806L28.12 18.3438L27.785 15.6438L28.4809 15.1008L28.45 14.9438C28.29 14.1238 27.84 13.3938 27.17 12.8938L23.38 9.52378L21 5.12378L18.1 4.96378L13.04 3.12378L6.37996 10.1638L4.76996 13.7738L4.50996 14.3538L2.84996 17.4238C2.67996 17.7238 2.86996 20.5038 2.80996 20.8438C2.80996 20.8438 9.75996 29.1038 10.38 29.1038Z" fill="#9B9B9B"/>
<path d="M20 10.1038L15.95 21.2438L25.66 23.9438L29.29 19.1738L28.48 15.1038L20 10.1038Z" fill="#E6E6E6"/>
<path d="M2.51 18.3936L2 22.1036H5L5.79 18.9736C5.92 18.4136 6.27 17.9436 6.76 17.6436L11 15.1036L7.95 8.4436L6.57 9.9536C6.44 10.0936 6.34 10.2536 6.26 10.4336L4.51 14.3636L2.85 17.4336C2.68 17.7336 2.57 18.0536 2.51 18.3936Z" fill="#636363"/>
<path d="M11.51 20.6137L16 25.1037L25.66 23.9437L18.18 20.5437C17.52 20.2437 17.18 19.4937 17.39 18.7937L20 10.1037L21 5.12367C20.16 3.78367 19.77 3.40367 18.33 2.93367C17.37 2.59367 16.54 2.30367 16.54 2.30367C16.54 2.30367 16 2.07367 15.42 2.01367C14.69 1.95367 14.22 2.08367 13.6 2.55367L11 15.1037V19.3837C11 19.8437 11.18 20.2837 11.51 20.6137Z" fill="#D3D3D3"/>
<path d="M2 22.1038H5L16 25.1038V30.0938L11.75 30.1038C10.6 30.1038 9.47 29.8438 8.44 29.3238L7.07 28.6438C6.36 28.2938 5.72 27.8238 5.16 27.2638L4.23 26.3338C3.42 25.5238 2.81 24.5438 2.45 23.4538L2 22.1038Z" fill="#636363"/>
<path d="M29.98 22.9136C30.1 23.5736 29.92 24.2536 29.47 24.7636L25.5 29.2836C25.09 29.7536 24.33 30.0936 23.71 30.1036H16V25.1036L25.66 23.9436L29.28 19.1736L29.98 22.9136Z" fill="#9B9B9B"/>
<path d="M17.51 4.43372L16.4 2.86372C15.72 1.90372 14.33 1.79372 13.51 2.64372L6.75003 9.68372C6.10003 10.3637 6.22003 11.4737 7.00003 11.9937L11 15.1037L15.63 10.8937C16.18 10.3937 16.58 9.75372 16.79 9.03372L17.74 5.78372C17.87 5.32372 17.79 4.82372 17.51 4.43372Z" fill="#9B9B9B"/>
</svg>

<svg xmlns="http://www.w3.org/2000/svg" width="32" height="32" fill="none"><path fill="#9B9B9B" d="m10.38 29.104 12.9.99a3.4 3.4 0 0 0 2.74-1.38l3.18-4.3c.56-.77.78-1.74.59-2.67l-.505-2.563-1.165-.837-.335-2.7.696-.543-.031-.157c-.16-.82-.61-1.55-1.28-2.05l-3.79-3.37-2.38-4.4-2.9-.16-5.06-1.84-6.66 7.04-1.61 3.61-.26.58-1.66 3.07c-.17.3.02 3.08-.04 3.42 0 0 6.95 8.26 7.57 8.26Z"/><path fill="#E6E6E6" d="m20 10.104-4.05 11.14 9.71 2.7 3.63-4.77-.81-4.07-8.48-5Z"/><path fill="#636363" d="M2.51 18.394 2 22.104h3l.79-3.13c.13-.56.48-1.03.97-1.33l4.24-2.54-3.05-6.66-1.38 1.51c-.13.14-.23.3-.31.48l-1.75 3.93-1.66 3.07c-.17.3-.28.62-.34.96Z"/><path fill="#D3D3D3" d="m11.51 20.614 4.49 4.49 9.66-1.16-7.48-3.4c-.66-.3-1-1.05-.79-1.75l2.61-8.69 1-4.98c-.84-1.34-1.23-1.72-2.67-2.19-.96-.34-1.79-.63-1.79-.63s-.54-.23-1.12-.29c-.73-.06-1.2.07-1.82.54L11 15.104v4.28c0 .46.18.9.51 1.23Z"/><path fill="#636363" d="M2 22.104h3l11 3v4.99l-4.25.01c-1.15 0-2.28-.26-3.31-.78l-1.37-.68a7.22 7.22 0 0 1-1.91-1.38l-.93-.93a7.309 7.309 0 0 1-1.78-2.88L2 22.104Z"/><path fill="#9B9B9B" d="M29.98 22.914c.12.66-.06 1.34-.51 1.85l-3.97 4.52c-.41.47-1.17.81-1.79.82H16v-5l9.66-1.16 3.62-4.77.7 3.74ZM17.51 4.434l-1.11-1.57a1.883 1.883 0 0 0-2.89-.22l-6.76 7.04c-.65.68-.53 1.79.25 2.31l4 3.11 4.63-4.21c.55-.5.95-1.14 1.16-1.86l.95-3.25c.13-.46.05-.96-.23-1.35Z"/></svg>
